assets/images/ataccount.svg

<svg width="412" height="80" viewBox="0 0 412 80" fill="none" xmlns="http://www.w3.org/2000/svg">
<path d="M230.46 29.4937C233.428 29.4937 235.973 30.0706 238.096 31.2243C240.219 32.3554 241.885 33.8259 243.095 35.6356C244.327 37.4454 245.069 39.3569 245.32 41.3703C245.339 41.5145 245.225 41.6418 245.079 41.6418H239.816C239.65 41.6418 239.506 41.5298 239.465 41.3703C239.032 39.6058 238.073 38.0562 236.589 36.7215C235.128 35.3868 233.085 34.7194 230.46 34.7194C228.406 34.7194 226.602 35.2624 225.05 36.3482C223.498 37.4114 222.288 38.9271 221.421 40.8952C220.553 42.8407 220.12 45.1482 220.12 47.8176V47.8515C220.12 50.5888 220.553 52.9302 221.421 54.8757C222.311 56.8212 223.532 58.3142 225.085 59.3548C226.66 60.3955 228.474 60.9158 230.529 60.9158C232.971 60.9158 234.946 60.305 236.452 59.0834C237.982 57.8392 238.997 56.233 239.5 54.2649C239.54 54.1053 239.684 53.9934 239.85 53.9934H245.181C245.309 53.9934 245.407 54.1056 245.389 54.2309C245.069 56.4705 244.236 58.4952 242.889 60.305C241.565 62.0921 239.842 63.5173 237.719 64.5805C235.619 65.6212 233.222 66.1415 230.529 66.1415C227.173 66.1415 224.251 65.3949 221.763 63.9019C219.298 62.3862 217.392 60.2597 216.045 57.5225C214.698 54.7626 214.025 51.5163 214.025 47.7837V47.7497C214.025 44.0397 214.71 40.8161 216.079 38.0788C217.449 35.3415 219.367 33.2264 221.832 31.7333C224.297 30.2403 227.173 29.4937 230.46 29.4937Z" fill="white"/>
<path d="M265.59 29.4937C268.558 29.4937 271.103 30.0706 273.226 31.2243C275.349 32.3554 277.015 33.8259 278.225 35.6356C279.457 37.4454 280.199 39.3569 280.45 41.3703C280.468 41.5145 280.355 41.6418 280.209 41.6418H274.946C274.78 41.6418 274.636 41.5298 274.595 41.3703C274.162 39.6058 273.203 38.0562 271.719 36.7215C270.258 35.3868 268.215 34.7194 265.59 34.7194C263.536 34.7194 261.733 35.2624 260.18 36.3482C258.628 37.4114 257.418 38.9271 256.551 40.8952C255.684 42.8407 255.25 45.1482 255.25 47.8176V47.8515C255.25 50.5888 255.684 52.9302 256.551 54.8757C257.441 56.8212 258.662 58.3142 260.215 59.3548C261.79 60.3955 263.604 60.9158 265.659 60.9158C268.101 60.9158 270.076 60.305 271.582 59.0834C273.112 57.8392 274.127 56.233 274.63 54.2649C274.67 54.1053 274.814 53.9934 274.98 53.9934H280.311C280.439 53.9934 280.537 54.1056 280.519 54.2309C280.199 56.4705 279.366 58.4952 278.019 60.305C276.695 62.0921 274.972 63.5173 272.849 64.5805C270.749 65.6212 268.352 66.1415 265.659 66.1415C262.303 66.1415 259.381 65.3949 256.893 63.9019C254.428 62.3862 252.522 60.2597 251.175 57.5225C249.829 54.7626 249.155 51.5163 249.155 47.7837V47.7497C249.155 44.0397 249.84 40.8161 251.21 38.0788C252.579 35.3415 254.497 33.2264 256.962 31.7333C259.427 30.2403 262.303 29.4937 265.59 29.4937Z" fill="white"/>
<path fill-rule="evenodd" clip-rule="evenodd" d="M300.754 29.4937C304.042 29.4937 306.918 30.2403 309.383 31.7333C311.871 33.2037 313.8 35.3076 315.169 38.0449C316.562 40.7595 317.258 43.9945 317.258 47.7497V47.8176C317.258 51.5729 316.562 54.8191 315.169 57.5564C313.8 60.2937 311.882 62.4088 309.417 63.9019C306.952 65.3949 304.076 66.1415 300.789 66.1415C297.502 66.1415 294.614 65.3949 292.126 63.9019C289.661 62.4088 287.732 60.2937 286.34 57.5564C284.97 54.7965 284.285 51.5502 284.285 47.8176V47.7497C284.285 43.9945 284.97 40.7595 286.34 38.0449C287.732 35.3076 289.661 33.2037 292.126 31.7333C294.614 30.2403 297.49 29.4937 300.754 29.4937ZM300.754 34.7194C298.7 34.7194 296.885 35.2397 295.31 36.2803C293.758 37.2983 292.548 38.7801 291.681 40.7256C290.814 42.6485 290.38 44.9898 290.38 47.7497V47.8176C290.38 50.5775 290.814 52.9415 291.681 54.9096C292.548 56.8551 293.758 58.3482 295.31 59.3888C296.885 60.4068 298.723 60.9158 300.823 60.9158C302.923 60.9158 304.738 60.4068 306.267 59.3888C307.819 58.3482 309.018 56.8551 309.862 54.9096C310.73 52.9415 311.163 50.5775 311.163 47.8176V47.7497C311.163 44.9898 310.73 42.6371 309.862 40.6916C309.018 38.7462 307.808 37.2644 306.233 36.2464C304.681 35.2284 302.855 34.7194 300.754 34.7194Z" fill="white"/>
<path d="M329.071 52.0253C329.071 54.8983 329.744 57.1039 331.091 58.6422C332.46 60.1579 334.515 60.9158 337.254 60.9158C338.669 60.9158 339.936 60.6782 341.055 60.2032C342.196 59.7281 343.178 59.0608 343.999 58.2011C344.821 57.3189 345.449 56.2669 345.883 55.0453C346.316 53.8011 346.533 52.4325 346.533 50.9394V31.9098C346.533 30.9502 347.318 30.1724 348.286 30.1724H350.738C351.706 30.1724 352.491 30.9502 352.491 31.9098V63.7254C352.491 64.6849 351.706 65.4628 350.738 65.4628H348.286C347.318 65.4628 346.533 64.6849 346.533 63.7254V60.5269C346.533 60.4793 346.494 60.4407 346.446 60.4407C346.415 60.4407 346.387 60.457 346.371 60.4834C345.735 61.5521 344.91 62.5106 343.897 63.3589C342.892 64.2186 341.682 64.8972 340.267 65.3949C338.852 65.8926 337.243 66.1415 335.439 66.1415C332.837 66.1415 330.612 65.6098 328.763 64.5466C326.936 63.4834 325.533 61.979 324.551 60.0335C323.592 58.0654 323.113 55.7466 323.113 53.0772V31.9098C323.113 30.9502 323.898 30.1724 324.866 30.1724H327.318C328.286 30.1724 329.071 30.9502 329.071 31.9098V52.0253Z" fill="white"/>
<path d="M405.22 29.3037C405.22 29.7835 405.612 30.1724 406.097 30.1724H410.246C411.215 30.1724 412 30.9502 412 31.9098V33.3214C412 34.2809 411.215 35.0588 410.246 35.0588H406.097C405.612 35.0588 405.22 35.4477 405.22 35.9274V56.4366C405.22 58.3142 405.631 59.5924 406.453 60.271C407.274 60.9271 408.484 61.2551 410.082 61.2551C410.447 61.2551 410.79 61.2438 411.109 61.2212C411.586 61.1581 412 61.5306 412 62.0075V64.4722C412 65.2901 411.384 65.9769 410.561 66.0397C409.991 66.1075 409.409 66.1415 408.815 66.1415C405.551 66.1415 403.109 65.3723 401.488 63.834C399.867 62.2957 399.057 59.8412 399.057 56.4705V35.9274C399.057 35.4477 398.664 35.0588 398.18 35.0588H395.605C394.637 35.0588 393.852 34.2809 393.852 33.3214V31.9098C393.852 30.9502 394.637 30.1724 395.605 30.1724H398.18C398.664 30.1724 399.057 29.7835 399.057 29.3037V22.3746C399.057 21.415 399.842 20.6372 400.81 20.6372H403.467C404.435 20.6372 405.22 21.415 405.22 22.3746V29.3037Z" fill="white"/>
<path fill-rule="evenodd" clip-rule="evenodd" d="M210.819 63.1205C211.244 64.2554 210.397 65.4628 209.176 65.4628H206.465C205.722 65.4628 205.06 64.9989 204.812 64.3048L200.43 52.0274C200.306 51.6804 199.975 51.4484 199.603 51.4484H180.966C180.595 51.4484 180.264 51.6801 180.14 52.0269L175.748 64.3059C175.5 64.9994 174.838 65.4628 174.096 65.4628H171.386C170.164 65.4628 169.316 64.2546 169.743 63.1195L186.825 17.6288C187.08 16.9485 187.735 16.4974 188.468 16.4974H192.125C192.858 16.4974 193.514 16.949 193.769 17.6298L210.819 63.1205ZM182.619 45.0977C182.417 45.6631 182.84 46.2567 183.445 46.2567H197.131C197.736 46.2567 198.159 45.6636 197.957 45.0983L190.388 23.8909C190.375 23.8525 190.338 23.8269 190.297 23.8269C190.256 23.8269 190.219 23.8525 190.206 23.8908L182.619 45.0977Z" fill="white"/>
<path d="M377.315 29.4937C381.218 29.4937 384.242 30.6701 386.388 33.0228C388.557 35.3528 389.641 38.5312 389.641 42.558V63.7254C389.641 64.6849 388.856 65.4628 387.888 65.4628H385.436C384.468 65.4628 383.683 64.6849 383.683 63.7254V43.6099C383.683 40.7369 382.998 38.5426 381.629 37.0269C380.282 35.4886 378.239 34.7194 375.5 34.7194C373.628 34.7194 371.996 35.1379 370.604 35.9749C369.211 36.7893 368.127 37.9431 367.351 39.4361C366.598 40.9292 366.221 42.6824 366.221 44.6958V63.7254C366.221 64.6849 365.436 65.4628 364.468 65.4628H362.016C361.048 65.4628 360.263 64.6849 360.263 63.7254V31.9098C360.263 30.9502 361.048 30.1724 362.016 30.1724H364.468C365.436 30.1724 366.221 30.9502 366.221 31.9098V35.1085C366.221 35.156 366.26 35.1945 366.308 35.1945C366.339 35.1945 366.367 35.178 366.383 35.1514C367.341 33.5195 368.725 32.1765 370.535 31.1225C372.361 30.0367 374.621 29.4937 377.315 29.4937Z" fill="white"/>
<path fill-rule="evenodd" clip-rule="evenodd" d="M126.435 63.0387C126.769 63.9638 126.068 64.9347 125.066 64.9347H117.17C116.536 64.9347 115.976 64.5323 115.786 63.9407L112.491 53.7086C112.396 53.4127 112.116 53.2116 111.799 53.2116H95.1194C94.8028 53.2116 94.5226 53.4127 94.4274 53.7085L91.1317 63.9408C90.9411 64.5324 90.3809 64.9347 89.7475 64.9347H81.8523C80.8499 64.9347 80.1492 63.963 80.4845 63.0378L96.966 17.5502C97.1715 16.983 97.7193 16.6041 98.3338 16.6041H108.618C109.233 16.6041 109.781 16.9835 109.987 17.551L126.435 63.0387ZM97.3216 44.7187C97.1741 45.1768 97.5233 45.6433 98.0137 45.6433H108.904C109.394 45.6433 109.743 45.1768 109.596 44.7188L103.595 26.0799C103.576 26.022 103.521 25.9826 103.459 25.9826C103.397 25.9826 103.343 26.022 103.324 26.0799L97.3216 44.7187Z" fill="white"/>
<path d="M159.5 23.5227C159.5 24.3078 158.85 24.9442 158.049 24.9442H145.702C145.301 24.9442 144.976 25.2624 144.976 25.655V63.5132C144.976 64.2982 144.326 64.9347 143.525 64.9347H135.935C135.133 64.9347 134.483 64.2982 134.483 63.5132V25.655C134.483 25.2624 134.159 24.9442 133.758 24.9442H121.447C120.645 24.9442 119.995 24.3078 119.995 23.5227V18.0256C119.995 17.2405 120.645 16.6041 121.447 16.6041H158.049C158.85 16.6041 159.5 17.2405 159.5 18.0256V23.5227Z" fill="white"/>
<path fill-rule="evenodd" clip-rule="evenodd" d="M40.4613 0C46.221 0 51.5068 0.991168 56.3178 2.97408C61.1287 4.88858 65.2958 7.58979 68.8193 11.0769C72.4106 14.4957 75.1555 18.5296 77.0528 23.1792C79.0179 27.8287 80 32.9576 80 38.5645C79.9999 43.0771 79.3896 46.94 78.17 50.1536C76.9503 53.3672 75.1212 55.8288 72.6818 57.5382C70.2425 59.1792 67.1928 60 63.5337 60C60.8912 60 58.4516 59.5217 56.2156 58.5645C54.0473 57.5388 52.3533 56.2051 51.1336 54.5641C50.9367 54.2991 50.7575 54.0293 50.5924 53.7571C49.4405 55.3959 47.9617 56.7598 46.153 57.8462C43.3071 59.4871 40.0886 60.3081 36.4974 60.3081C32.9738 60.3081 29.8226 59.4873 27.0444 57.8462C24.2664 56.2053 22.098 53.9148 20.5395 50.9748C18.981 48.0346 18.2021 44.6494 18.2021 40.8203C18.2021 36.8547 18.9811 33.4017 20.5395 30.4616C22.098 27.5215 24.2663 25.2303 27.0444 23.5893C29.8226 21.9483 32.9738 21.1284 36.4974 21.1284C39.4789 21.1284 42.0878 21.7779 44.3239 23.0771C45.6812 23.8242 46.9002 24.8492 47.9829 26.1506V22.8258H59.8747V43.3842C59.8747 45.6406 60.2138 47.2822 60.8914 48.3079C61.5691 49.2651 62.7888 49.7434 64.5505 49.7434C66.5833 49.7434 68.0406 48.8543 68.9215 47.0765C69.8699 45.2987 70.3444 42.4953 70.3444 38.6665C70.3444 34.4273 69.599 30.5637 68.1082 27.0765C66.6853 23.5895 64.6521 20.5812 62.0095 18.0513C59.3668 15.453 56.2156 13.4698 52.5566 12.1023C48.9654 10.7349 44.9677 10.0515 40.5635 10.0515C36.159 10.0515 32.1264 10.8031 28.4674 12.3074C24.8084 13.7432 21.6579 15.8295 19.0153 18.5645C16.3727 21.2995 14.306 24.5472 12.8152 28.3079C11.3923 32.0685 10.6804 36.2392 10.6804 40.8203C10.6804 44.9913 11.4258 48.8548 12.9166 52.4103C14.4751 55.9659 16.6097 59.077 19.3201 61.7436C22.0306 64.3419 25.1818 66.3935 28.7731 67.8977C32.4321 69.4019 36.3625 70.1536 40.5635 70.1536C46.4586 70.1535 52.0485 68.4782 57.3337 65.1278L61.9082 73.7438C58.7912 75.7951 55.3689 77.3337 51.642 78.3594C47.983 79.4534 44.2559 80 40.4613 80C34.9051 80 29.7214 79.0087 24.9105 77.0259C20.0995 75.043 15.8982 72.2736 12.3069 68.718C8.71554 65.1625 5.90348 61.0256 3.87066 56.3077C1.83785 51.5898 0.821315 46.4617 0.821289 40.9233C0.821289 34.9746 1.80338 29.5041 3.76845 24.5126C5.7335 19.5212 8.47848 15.2139 12.002 11.59C15.5933 7.96609 19.7946 5.12834 24.6056 3.07706C29.4843 1.02584 34.7695 1.94472e-05 40.4613 0ZM39.3432 31.6921C37.7171 31.6921 36.2605 32.0685 34.9731 32.8205C33.7535 33.5726 32.7704 34.6322 32.0251 35.9996C31.3475 37.3671 31.0093 38.9742 31.0092 40.8203C31.0092 42.5981 31.3475 44.1714 32.0251 45.5389C32.7704 46.8379 33.7535 47.863 34.9731 48.6151C36.2605 49.3671 37.7171 49.7434 39.3432 49.7434C41.0372 49.7434 42.4945 49.3672 43.7142 48.6151C44.9337 47.863 45.8825 46.8378 46.56 45.5389C47.2376 44.1714 47.5768 42.5981 47.5768 40.8203C47.5768 38.9742 47.2041 37.3671 46.4587 35.9996C45.7811 34.6322 44.8316 33.5726 43.612 32.8205C42.4601 32.0685 41.0371 31.6921 39.3432 31.6921Z" fill="white"/>
</svg>

<svg xmlns="http://www.w3.org/2000/svg" width="412" height="80" fill="none" viewBox="0 0 412 80"><path fill="#fff" d="M230.46 29.494q4.452 0 7.636 1.73 3.184 1.697 4.999 4.412 1.848 2.714 2.225 5.734a.242.242 0 0 1-.241.272h-5.263a.36.36 0 0 1-.351-.272q-.65-2.647-2.876-4.648-2.192-2.003-6.129-2.003-3.081 0-5.41 1.63-2.328 1.593-3.629 4.546-1.301 2.918-1.301 6.923v.034q0 4.105 1.301 7.024 1.335 2.918 3.664 4.479 2.362 1.56 5.444 1.56 3.663 0 5.923-1.832 2.294-1.866 3.048-4.818a.36.36 0 0 1 .35-.272h5.331a.21.21 0 0 1 .208.238 13.1 13.1 0 0 1-2.5 6.074q-1.986 2.68-5.17 4.276-3.15 1.56-7.19 1.56-5.034 0-8.766-2.24-3.698-2.272-5.718-6.379-2.02-4.14-2.02-9.738v-.034q0-5.565 2.054-9.671 2.055-4.106 5.753-6.346t8.628-2.24m35.13.001q4.452 0 7.636 1.73 3.184 1.697 4.999 4.412 1.848 2.714 2.225 5.734a.242.242 0 0 1-.241.272h-5.263a.36.36 0 0 1-.351-.272q-.65-2.647-2.876-4.648-2.192-2.003-6.129-2.003-3.08 0-5.41 1.63-2.328 1.593-3.629 4.546-1.3 2.918-1.301 6.923v.034q0 4.105 1.301 7.024 1.335 2.918 3.664 4.479 2.362 1.56 5.444 1.56 3.663 0 5.923-1.832 2.294-1.866 3.048-4.818a.36.36 0 0 1 .35-.272h5.331a.21.21 0 0 1 .208.238 13.1 13.1 0 0 1-2.5 6.074q-1.986 2.68-5.17 4.276-3.15 1.56-7.19 1.56-5.034 0-8.766-2.24-3.697-2.272-5.718-6.379-2.02-4.14-2.02-9.738v-.034q0-5.565 2.055-9.671 2.054-4.106 5.752-6.346t8.628-2.24"/><path fill="#fff" fill-rule="evenodd" d="M300.754 29.494q4.932 0 8.629 2.24 3.732 2.206 5.786 6.31 2.09 4.073 2.089 9.706v.068q0 5.633-2.089 9.738-2.054 4.107-5.752 6.346-3.697 2.24-8.628 2.24-4.93 0-8.663-2.24-3.698-2.24-5.786-6.346-2.055-4.14-2.055-9.738v-.068q0-5.632 2.055-9.705 2.088-4.106 5.786-6.312 3.732-2.24 8.628-2.24m0 5.225q-3.081 0-5.444 1.561-2.328 1.527-3.629 4.446-1.3 2.883-1.301 7.024v.068q0 4.14 1.301 7.092 1.3 2.918 3.629 4.479 2.363 1.527 5.513 1.527t5.444-1.527q2.328-1.56 3.595-4.48 1.301-2.952 1.301-7.091v-.068q0-4.14-1.301-7.058-1.266-2.919-3.629-4.446-2.328-1.527-5.479-1.527" clip-rule="evenodd"/><path fill="#fff" d="M329.071 52.025q0 4.31 2.02 6.617 2.054 2.274 6.163 2.274 2.123 0 3.801-.713a8.6 8.6 0 0 0 2.944-2.002q1.233-1.323 1.884-3.156.65-1.866.65-4.106V31.91c0-.959.785-1.737 1.753-1.737h2.452c.968 0 1.753.778 1.753 1.738v31.815c0 .96-.785 1.738-1.753 1.738h-2.452a1.745 1.745 0 0 1-1.753-1.738v-3.198a.087.087 0 0 0-.087-.086.09.09 0 0 0-.075.042 11.3 11.3 0 0 1-2.474 2.876q-1.507 1.29-3.63 2.036-2.122.747-4.828.746-3.903 0-6.676-1.594-2.74-1.596-4.212-4.514-1.438-2.951-1.438-6.956V31.91c0-.96.785-1.738 1.753-1.738h2.452c.968 0 1.753.778 1.753 1.738zm76.149-22.721c0 .48.392.868.877.868h4.149c.969 0 1.754.778 1.754 1.738v1.411c0 .96-.785 1.738-1.754 1.738h-4.149a.87.87 0 0 0-.877.868v20.51q0 2.816 1.233 3.834 1.232.984 3.629.984.548 0 1.027-.034a.788.788 0 0 1 .891.787v2.464a1.56 1.56 0 0 1-1.439 1.568q-.855.1-1.746.101-4.896 0-7.327-2.307t-2.431-7.364V35.928a.873.873 0 0 0-.877-.868h-2.575a1.745 1.745 0 0 1-1.753-1.738V31.91c0-.96.785-1.738 1.753-1.738h2.575a.873.873 0 0 0 .877-.868v-6.93c0-.959.785-1.737 1.753-1.737h2.657c.968 0 1.753.778 1.753 1.738z"/><path fill="#fff" fill-rule="evenodd" d="M210.819 63.12c.425 1.135-.422 2.343-1.643 2.343h-2.711a1.75 1.75 0 0 1-1.653-1.158l-4.382-12.278a.88.88 0 0 0-.827-.579h-18.637a.88.88 0 0 0-.826.579l-4.392 12.279a1.75 1.75 0 0 1-1.652 1.157h-2.71c-1.222 0-2.07-1.208-1.643-2.343l17.082-45.491c.255-.68.91-1.132 1.643-1.132h3.657c.733 0 1.389.452 1.644 1.133zm-28.2-18.022a.87.87 0 0 0 .826 1.159h13.686a.87.87 0 0 0 .826-1.159l-7.569-21.207a.1.1 0 0 0-.091-.064.1.1 0 0 0-.091.064z" clip-rule="evenodd"/><path fill="#fff" d="M377.315 29.494q5.854 0 9.073 3.529 3.253 3.495 3.253 9.535v21.167c0 .96-.785 1.738-1.753 1.738h-2.452a1.745 1.745 0 0 1-1.753-1.738V43.61q0-4.31-2.054-6.583-2.02-2.307-6.129-2.308-2.808 0-4.896 1.256-2.09 1.221-3.253 3.461-1.13 2.24-1.13 5.26v19.03c0 .959-.785 1.737-1.753 1.737h-2.452a1.745 1.745 0 0 1-1.753-1.738V31.91c0-.96.785-1.738 1.753-1.738h2.452c.968 0 1.753.778 1.753 1.738v3.198c0 .048.039.087.087.087a.09.09 0 0 0 .075-.044q1.437-2.448 4.152-4.029 2.739-1.628 6.78-1.628"/><path fill="#fff" fill-rule="evenodd" d="M126.435 63.039c.334.925-.367 1.896-1.369 1.896h-7.896a1.45 1.45 0 0 1-1.384-.994l-3.295-10.232a.72.72 0 0 0-.692-.497h-16.68a.72.72 0 0 0-.692.496l-3.295 10.233a1.45 1.45 0 0 1-1.385.994h-7.895c-1.002 0-1.703-.972-1.368-1.897L96.967 17.55a1.45 1.45 0 0 1 1.368-.946h10.284c.615 0 1.163.38 1.369.947zm-29.113-18.32a.713.713 0 0 0 .692.924h10.89c.49 0 .839-.466.692-.924l-6.001-18.64a.143.143 0 0 0-.271 0z" clip-rule="evenodd"/><path fill="#fff" d="M159.5 23.523c0 .785-.65 1.421-1.451 1.421h-12.347a.72.72 0 0 0-.726.711v37.858c0 .785-.65 1.422-1.451 1.422h-7.59c-.802 0-1.452-.637-1.452-1.422V25.655a.72.72 0 0 0-.725-.71h-12.311c-.802 0-1.452-.637-1.452-1.422v-5.497c0-.785.65-1.422 1.452-1.422h36.602c.801 0 1.451.637 1.451 1.422z"/><path fill="#fff" fill-rule="evenodd" d="M40.461 0q8.64 0 15.857 2.974 7.216 2.872 12.501 8.103 5.388 5.129 8.234 12.102Q80 30.154 80 38.565q0 6.768-1.83 11.589-1.83 4.82-5.488 7.384Q69.022 60 63.534 60q-3.964 0-7.318-1.435-3.253-1.54-5.082-4a10 10 0 0 1-.542-.808q-1.726 2.459-4.439 4.09-4.268 2.46-9.656 2.461-5.285 0-9.453-2.462-4.167-2.46-6.504-6.871-2.338-4.41-2.338-10.155 0-5.948 2.337-10.358t6.505-6.873q4.169-2.46 9.453-2.46 4.472 0 7.827 1.948 2.035 1.12 3.659 3.074v-3.325h11.892v20.558q0 3.385 1.016 4.924 1.017 1.435 3.66 1.435 3.049 0 4.37-2.666 1.423-2.667 1.423-8.41 0-6.36-2.236-11.59-2.135-5.231-6.099-9.026-3.963-3.897-9.452-5.949-5.388-2.05-11.994-2.05-6.607 0-12.096 2.255-5.489 2.154-9.452 6.257t-6.2 9.744q-2.135 5.64-2.135 12.512 0 6.257 2.237 11.59 2.337 5.334 6.403 9.334 4.066 3.898 9.453 6.154 5.49 2.256 11.79 2.256 8.843 0 16.77-5.026l4.575 8.616q-4.676 3.077-10.266 4.615A38.8 38.8 0 0 1 40.462 80q-8.335 0-15.552-2.974t-12.603-8.308-8.436-12.41Q.82 49.23.82 40.923q0-8.923 2.947-16.41 2.949-7.488 8.234-12.923 5.387-5.436 12.604-8.513Q31.924 0 40.46 0m-1.118 31.692q-2.44 0-4.37 1.129-1.83 1.128-2.948 3.179-1.016 2.05-1.016 4.82 0 2.667 1.016 4.719 1.119 1.948 2.948 3.076 1.931 1.128 4.37 1.128 2.541 0 4.371-1.128a7.75 7.75 0 0 0 2.846-3.076q1.017-2.051 1.017-4.719 0-2.77-1.118-4.82-1.017-2.051-2.847-3.18-1.728-1.127-4.269-1.128" clip-rule="evenodd"/></svg>
